X:1
T:Title
%%score { ( 1 3 ) | ( 2 4 ) }
L:1/8
M:4/4
K:G
V:1 treble nm="Grand Piano"
V:3 treble 
V:2 bass 
V:4 bass 
V:1
 z4 z2[Q:1/4=100] [B,D]>[B,D] | [B,G]>[B,G] [DB]>[DB] [B,Dd]>[B,Dd] [DB]>[^C_B] | %2
 [DB]2 [GB]2 [DB]2 [B,D]>[B,D] | (3[B,G][B,G][B,G] [DB]>[GB] [Ge]>[Ge] [GB]>[GB] | %4
 [Fc]2 [Ec]2 c2 D>D | F>F [FA]>[FA] [Ac]>[Ac] [GB]>[FA] | G2 d2 d2 (3BBB | A2 A>A B>B [G^c]>[Gc] | %8
[M:17/16] [Fd]-<[Fd][G^c]-<[Gc][A=c]/-[Ac]/-[Ac]/-[Ac]/-[Ac]/-[Ac]-<[Ac] |[M:1/8] [Dc] | %10
[M:4/4] .[DB]2 .[G,B,D]2 .[DB]2 (3[B,D][B,G][CA] | B>_B =B>c B3 B | .c2 D2 .c2 (3DF[FA] | %13
 [Ac]>[^GB] [Ac]>[Bd] B3 B | [EA]>[EG] [DF]>[CE] [B,D]2 [DB]>[DB] | %15
 [EA]>[EG] [DF]>[CE] [B,D]>[B,D] (3DGB | d6 z2 |[M:3/4] [G,G]6 |] %18
V:2
 z4 z2 [G,,G,]>[G,,G,] | [G,,G,]>[G,,G,] [G,,G,]>[G,,G,] [G,,G,]>[G,,G,] [G,,G,]>[G,,G,] | %2
 [G,,G,]2 [G,,G,]2 [G,,G,]2 [G,,G,]>[G,,G,] | %3
 (3[G,,G,][G,,G,][G,,G,] [G,,G,]>[G,,G,] [G,,G,]>[G,,G,] [G,,G,]>[G,,G,] | %4
 [D,A,]2 [D,G,]2 [D,F,D]2 [D,F,]>[D,F,] | [D,A,D]>[D,A,D] [D,D]>[D,D] [D,D]>[D,D] [D,D]>[D,C] | %6
 [G,B,]2[K:treble] [G,B,G]2 [G,B,G]2 (3[G,DG][G,DG][G,DG] | %7
 [A,DF]2 [A,DF]>[A,DF] [A,^CG]>[A,CG][K:bass] [E,A,]>[E,A,] | %8
[M:17/16] [D,A,]-<[D,A,][E,A,]-<[E,A,][F,D]/-[F,D]/-[F,D]/-[F,D]/-[F,D]/-[F,D]-<[F,D] | %9
[M:1/8] [F,A,] |[M:4/4] G,2 .G,,2 G,2 (3[G,,G,][G,,G,][G,,G,] | %11
 [G,D]>[G,C] [G,D]>[G,E] [G,D]3 [G,D] | .[D,F,D]2 .[D,F,]2 .[D,F,D]2 (3[D,F,][D,A,D][D,D] | %13
 [D,D]>[D,D] [D,D]>[D,D][K:treble] [G,DG]3 [G,D] | %14
 [C,G,]>[C,G,] [C,G,]>[C,G,] [G,,G,]2 [G,,G,]>[G,,G,] | %15
 [C,G,]>[C,G,] [C,G,]>[C,G,] [G,,G,]>[G,,G,] (3[G,B,][G,B,][G,D] | %16
 [D,A,]2 (3[D,A,][D,B,][D,C] [D,A,]>[D,A,] D,>D, |[M:3/4] z z/ B,/ D>C B,2 |] %18
V:3
 x8 | x8 | x8 | x8 | x8 | x8 | x8 | x8 |[M:17/16] x17/2 |[M:1/8] x |[M:4/4] x8 | x8 | x8 | x8 | %14
 x8 | x8 | F2 (3FFF F>[Fd] [A,DF]>[A,CF] |[M:3/4] B,2 z2 z2 |] %18
V:4
 x8 | x8 | x8 | x8 | x8 | x8 | x2[K:treble] x6 | x6[K:bass] x2 |[M:17/16] x17/2 |[M:1/8] x | %10
[M:4/4] x8 | x8 | x8 | x4[K:treble] x4 | x8 | x8 | x8 |[M:3/4] G,,6 |] %18

